X: 11013
T: Drunken Tinker, The
R: reel
M: 4/4
K: Amixolydian
EAAG EGDG|EA~A2 fAeA|EAAG EDEF|1 G2DG B,GDG:|2 GFGA BcdB||
A2eA fAeA|fAeA dBGB|A2gA fAeA|d2BG EFGB|
A2eA fAeA|fAeA dBGB|~e3f ~g3e|d2BG EFGB||

